app/images/icons/log-in.svg

<svg width="24" height="24" viewBox="0 0 24 24" fill="none" xmlns="http://www.w3.org/2000/svg">
<path d="M18 12C17.9583 10.2917 17.375 8.875 16.25 7.75C15.125 6.625 13.7083 6.04167 12 6C11.7083 6 11.4688 5.90625 11.2812 5.71875C11.0938 5.53125 11 5.29167 11 5C11 4.70833 11.0938 4.46875 11.2812 4.28125C11.4688 4.09375 11.7083 4 12 4C13.5 4.02083 14.8438 4.38542 16.0312 5.09375C17.2396 5.80208 18.1979 6.76042 18.9062 7.96875C19.6146 9.15625 19.9792 10.5 20 12C19.9792 13.5 19.6146 14.8438 18.9062 16.0312C18.1979 17.2396 17.2396 18.1979 16.0312 18.9062C14.8438 19.6146 13.5 19.9792 12 20C11.7083 20 11.4688 19.9062 11.2812 19.7188C11.0938 19.5312 11 19.2917 11 19C11 18.7083 11.0938 18.4688 11.2812 18.2812C11.4688 18.0938 11.7083 18 12 18C13.7083 17.9583 15.125 17.375 16.25 16.25C17.375 15.125 17.9583 13.7083 18 12ZM11.2188 7.78125L14.7188 11.2812C14.9062 11.4896 15 11.7292 15 12C15 12.2708 14.9062 12.5104 14.7188 12.7188L11.2188 16.2188C11.0104 16.4062 10.7708 16.5 10.5 16.5C10.2292 16.5 9.98958 16.4062 9.78125 16.2188C9.59375 16.0104 9.5 15.7708 9.5 15.5C9.5 15.2292 9.59375 14.9896 9.78125 14.7812L11.5938 13H5C4.70833 13 4.46875 12.9062 4.28125 12.7188C4.09375 12.5312 4 12.2917 4 12C4 11.7083 4.09375 11.4688 4.28125 11.2812C4.46875 11.0938 4.70833 11 5 11H11.5938L9.78125 9.21875C9.59375 9.01042 9.5 8.77083 9.5 8.5C9.5 8.22917 9.59375 7.98958 9.78125 7.78125C9.98958 7.59375 10.2292 7.5 10.5 7.5C10.7708 7.5 11.0104 7.59375 11.2188 7.78125Z" fill="#212126"/>
</svg>

<svg width="24" height="24" xmlns="http://www.w3.org/2000/svg">
	<path d="M18 12c-.042-1.708-.625-3.125-1.75-4.25S13.708 6.042 12 6a.974.974 0 01-.719-.281A.974.974 0 0111 5c0-.292.094-.531.281-.719A.974.974 0 0112 4c1.5.02 2.844.385 4.031 1.094a7.925 7.925 0 012.875 2.875C19.615 9.156 19.98 10.5 20 12c-.02 1.5-.385 2.844-1.094 4.031a7.924 7.924 0 01-2.875 2.875C14.844 19.615 13.5 19.98 12 20a.974.974 0 01-.719-.281A.974.974 0 0111 19c0-.292.094-.531.281-.719A.974.974 0 0112 18c1.708-.042 3.125-.625 4.25-1.75S17.958 13.708 18 12zm-6.781-4.219l3.5 3.5c.187.209.281.448.281.719 0 .27-.094.51-.281.719l-3.5 3.5a1.044 1.044 0 01-.719.281c-.27 0-.51-.094-.719-.281A1.043 1.043 0 019.5 15.5c0-.27.094-.51.281-.719L11.594 13H5a.974.974 0 01-.719-.281A.974.974 0 014 12c0-.292.094-.531.281-.719A.974.974 0 015 11h6.594L9.78 9.219A1.043 1.043 0 019.5 8.5c0-.27.094-.51.281-.719.209-.187.448-.281.719-.281.27 0 .51.094.719.281z" />
</svg>
